icon-themes/breeze_svg/cmd/sc_renameobject.svg

<svg viewBox="0 0 16 16" xmlns="http://www.w3.org/2000/svg"><path d="m8 2a6 6 0 0 0 -6 6 6 6 0 0 0 6 6 6 6 0 0 0 2-.351562v-1.072266a5 5 0 0 1 -2 .423828 5 5 0 0 1 -5-5 5 5 0 0 1 5-5 5 5 0 0 1 4.894531 4h1.015625a6 6 0 0 0 -5.910156-5z" fill="#4d4d4d"/><path d="m11 8v1h1v4h-1v1h3v-1h-1v-4h1v-1z" fill="#1d99f3"/></svg>

<svg xmlns="http://www.w3.org/2000/svg" viewBox="0 0 16 16">
 <path
   style="fill:#4d4d4d"
   d="M 8 2 A 6 6 0 0 0 2 8 A 6 6 0 0 0 8 14 A 6 6 0 0 0 10 13.648438 L 10 12.576172 A 5 5 0 0 1 8 13 A 5 5 0 0 1 3 8 A 5 5 0 0 1 8 3 A 5 5 0 0 1 12.894531 7 L 13.910156 7 A 6 6 0 0 0 8 2 z "
   />
<path
   style="fill:#1d99f3"
   d="m 11,8 v 1 h 1 v 4 h -1 v 1 h 3 V 13 H 13 V 9 h 1 V 8 Z"
   />
</svg>
